Papirus/24x24/actions/kt-add-filters.svg

<?xml version="1.0" encoding="UTF-8" standalone="no"?>
<!--Created with Inkscape (http://www.inkscape.org/)-->
<svg id="svg7384" xmlns:rdf="http://www.w3.org/1999/02/22-rdf-syntax-ns#" style="enable-background:new" xmlns="http://www.w3.org/2000/svg" height="24" width="24" version="1.1" xmlns:cc="http://creativecommons.org/ns#" xmlns:dc="http://purl.org/dc/elements/1.1/">
 <metadata id="metadata90">
  <rdf:RDF>
   <cc:Work rdf:about="">
    <dc:format>image/svg+xml</dc:format>
    <dc:type rdf:resource="http://purl.org/dc/dcmitype/StillImage"/>
   </cc:Work>
  </rdf:RDF>
 </metadata>
 <g id="layer12" transform="translate(-365 99.003)">
  <g id="g4139" transform="translate(5,4)">
   <path id="path5873" opacity="1" fill="#5c616c" d="m369.02-89.003-0.0206-4-4-4h10l-4 4 0.00005 4-1.0106 4z"/>
   <path id="rect4157" opacity="1" fill="#5c616c" transform="translate(365 -99.003)" d="m10 6v2h-2v2h2v2h2v-2h2v-2h-2v-2h-2z"/>
  </g>
 </g>
</svg>

<?xml version="1.0" encoding="UTF-8" standalone="no"?>
<svg xmlns="http://www.w3.org/2000/svg" viewBox="0 0 24 24">
  <defs>
    <style type="text/css" id="current-color-scheme">
      .ColorScheme-Text {
        color:#5c616c;
      }
      </style>
  </defs>
  <path style="fill:currentColor;opacity:0.3" class="ColorScheme-Text" transform="translate(4 4)" d="M 0 2 L 4 6 L 4.0195312 10 L 4.9882812 14 L 6 10 L 6 6 L 10 2 L 0 2 z M 10 6 L 10 8 L 8 8 L 8 10 L 10 10 L 10 12 L 12 12 L 12 10 L 14 10 L 14 8 L 12 8 L 12 6 L 10 6 z "/>
</svg>
